src/icons/svg/eye.svg

<?xml version="1.0" encoding="UTF-8"?>
<svg width="40px" height="20px" viewBox="0 0 40 20" version="1.1" xmlns="http://www.w3.org/2000/svg"
>
    <path d="M39.750512,2.47453758 C40.1795157,1.78312139 40.0367232,0.861233142 39.4643008,0.323256236 C38.8204821,-0.214407529 37.9621615,-0.0606551072 37.4614485,0.63076108 C37.3897391,0.70748072 29.4494129,10.7709055 20.0069474,10.7709055 C10.8506932,10.7709055 2.5524464,0.63076108 2.48105017,0.554041439 C1.98002394,-0.0606551072 1.04999402,-0.137374748 0.477884702,0.400602159 C-0.0942246162,0.937639641 -0.165933994,1.93624753 0.334779087,2.55094408 C0.477884702,2.78141614 2.19483894,4.8556647 4.91290619,7.16038532 L1.26480901,11.2318497 C0.692386553,11.8465462 0.76378279,12.8451541 1.33620525,13.383131 C1.47931086,13.6900096 1.83723147,13.843762 2.19483894,13.843762 C2.5524464,13.843762 2.91005387,13.6903227 3.1962651,13.3828179 L7.13057351,9.00416182 C8.99063336,10.3869942 11.2079875,11.6931069 13.6401567,12.614682 L12.1380175,18.0689788 C11.9235156,18.9141474 12.3528325,19.7590028 13.1394436,19.9894749 L13.5684473,19.9894749 C14.2125792,19.9894749 14.7846885,19.5285308 14.9277941,18.8371146 L16.4302465,13.383131 C17.5747783,13.6136031 18.7907063,13.7673555 20.0069474,13.7673555 C21.2228754,13.7673555 22.4391166,13.6139162 23.5836484,13.383131 L25.0857876,18.7607081 C25.2288932,19.4521243 25.8727119,19.9130684 26.4448212,19.9130684 C26.5879269,19.9130684 26.7310325,19.9130684 26.8027419,19.8360356 C27.5896662,19.6055635 28.0186699,18.7607081 27.804168,17.9155395 L26.3020288,12.5382755 C28.7341979,11.6163873 30.9515521,10.3105877 32.811612,8.92775532 L36.6745241,13.2296917 C36.9604222,13.5368834 37.3183428,13.6906359 37.6759503,13.6906359 C38.0335578,13.6906359 38.3911652,13.5371966 38.6773765,13.2296917 C39.2497989,12.6149952 39.2497989,11.6934201 38.7487727,11.0784104 L35.1006755,7.00725918 C38.0335578,4.70253856 39.750512,2.47485072 39.750512,2.47485072 L39.750512,2.47453758 Z"
          id="路径"></path>
</svg>

<svg width="40" height="20" xmlns="http://www.w3.org/2000/svg"><path d="M39.75 2.475a1.74 1.74 0 0 0-.286-2.152c-.644-.537-1.502-.384-2.003.308-.071.076-8.012 10.14-17.454 10.14C10.85 10.77 2.552.63 2.48.554 1.98-.061 1.05-.137.478.401-.094.938-.166 1.936.335 2.55c.143.23 1.86 2.305 4.578 4.61l-3.648 4.07c-.573.616-.501 1.614.071 2.152.143.307.501.46.859.46.357 0 .715-.153 1.001-.46l3.935-4.379c1.86 1.383 4.077 2.69 6.51 3.61l-1.503 5.455c-.214.845.215 1.69 1.001 1.92h.43c.644 0 1.216-.46 1.359-1.152l1.502-5.454c1.145.23 2.36.384 3.577.384 1.216 0 2.432-.153 3.577-.384l1.502 5.378c.143.691.787 1.152 1.359 1.152.143 0 .286 0 .358-.077.787-.23 1.216-1.075 1.001-1.92l-1.502-5.378c2.432-.922 4.65-2.227 6.51-3.61l3.863 4.302c.285.307.643.46 1.001.46.358 0 .715-.153 1.001-.46a1.64 1.64 0 0 0 .072-2.152L35.1 7.008c2.933-2.305 4.65-4.533 4.65-4.533z"/></svg>
